public/assets/images/icon/wcuIcon1_4.svg

<svg width="80" height="80" viewBox="0 0 80 80" fill="none" xmlns="http://www.w3.org/2000/svg">
<rect opacity="0.2" x="0.5" y="0.5" width="79" height="79" rx="9.5" stroke="#7444FD"/>
<path opacity="0.94" fill-rule="evenodd" clip-rule="evenodd" d="M24.4861 19.007C32.7446 18.9884 41.0031 19.007 49.2614 19.0628C53.5868 19.7836 56.5442 22.1848 58.1336 26.2664C58.4197 27.139 58.6056 28.0325 58.6917 28.9468C62.1379 30.7594 64.2211 33.5887 64.9413 37.4348C65.0471 40.5658 65.0099 43.6929 64.8297 46.8162C63.5555 51.6708 60.4494 54.556 55.511 55.4717C50.1171 55.5275 44.723 55.5461 39.3289 55.5275C39.4713 56.8649 39.5271 58.2051 39.4963 59.5481C38.8945 60.8449 37.9087 61.2729 36.5389 60.8325C36.3529 60.7208 36.167 60.6091 35.9809 60.4974C34.5913 58.8884 33.2149 57.269 31.8517 55.6392C25.8104 54.8611 22.2578 51.4734 21.1938 45.476C17.7633 43.7137 15.7173 40.9216 15.0558 37.0997C14.9814 34.1959 14.9814 31.2922 15.0558 28.3884C16.1122 23.1431 19.2556 20.0159 24.4861 19.007ZM24.5977 20.9056C32.9712 20.8518 41.3412 20.9077 49.7078 21.0731C53.4813 22.0757 55.7877 24.4769 56.627 28.2767C54.8476 28.1093 53.062 28.0163 51.2702 27.9975C44.9196 27.9741 38.577 27.9554 32.2423 27.9417C26.9423 28.2947 23.4082 30.9751 21.6402 35.9829C21.4856 36.5704 21.374 37.1661 21.3054 37.7698C21.2868 39.5952 21.231 41.4193 21.138 43.2423C18.3725 41.431 16.9403 38.8623 16.8414 35.5361C16.7496 33.2256 16.7868 30.9175 16.953 28.6118C17.8816 24.4251 20.4298 21.8564 24.5977 20.9056ZM31.9633 29.8403C39.4034 29.8216 46.8435 29.8403 54.2834 29.8961C57.9157 30.1453 60.5755 31.8764 62.2629 35.0894C62.644 35.9076 62.9045 36.7638 63.0441 37.6581C63.2953 40.6045 63.258 43.5455 62.9325 46.4811C61.8507 50.4303 59.3026 52.7943 55.2878 53.573C49.4424 53.5749 43.6019 53.6494 37.7665 53.7964C37.4355 54.0494 37.2868 54.3844 37.3201 54.8016C37.4779 56.2318 37.5895 57.665 37.6549 59.1014C37.3466 59.0741 37.1049 58.9252 36.9295 58.6546C35.618 56.9693 34.223 55.3499 32.7445 53.7964C27.8205 53.5572 24.6771 51.0815 23.3142 46.3694C23.1358 43.5436 23.0986 40.7143 23.2026 37.8815C24.1893 33.0778 27.1096 30.3974 31.9633 29.8403ZM33.0793 39.3334C34.2911 39.4163 34.6817 40.0119 34.2511 41.1203C33.2917 41.8548 32.6034 41.65 32.1865 40.5061C32.2643 39.9281 32.5619 39.5372 33.0793 39.3334ZM43.6814 39.3334C44.6633 39.3294 45.1283 39.8133 45.0764 40.7853C44.7931 41.4775 44.2909 41.7195 43.5698 41.5112C42.9532 41.1852 42.7486 40.6826 42.956 40.0035C43.1227 39.6892 43.3644 39.4658 43.6814 39.3334ZM54.2834 39.3334C55.4146 39.3663 55.8424 39.9247 55.5668 41.0086C54.8972 41.7532 54.2276 41.7532 53.558 41.0086C53.3132 40.2353 53.555 39.6769 54.2834 39.3334Z" fill="#7444FD"/>
<path opacity="0.93" fill-rule="evenodd" clip-rule="evenodd" d="M32.7445 37.4345C34.5065 37.2638 35.6783 38.0084 36.2599 39.6682C36.5017 42.4045 35.2555 43.6516 32.5213 43.4096C30.5146 42.5227 29.9008 41.0522 30.6799 38.9981C31.1677 38.1912 31.8559 37.67 32.7445 37.4345ZM33.0793 39.3332C32.5619 39.537 32.2642 39.9279 32.1865 40.5058C32.6034 41.6498 33.2916 41.8545 34.2511 41.1201C34.6816 40.0116 34.291 39.416 33.0793 39.3332Z" fill="#7444FD"/>
<path opacity="0.931" fill-rule="evenodd" clip-rule="evenodd" d="M43.3465 37.4349C45.291 37.2805 46.5 38.1368 46.9735 40.0037C46.9704 42.5009 45.7241 43.6364 43.2349 43.41C41.5258 42.8013 40.8004 41.5915 41.0587 39.7803C41.3942 38.5696 42.1569 37.7879 43.3465 37.4349ZM43.6813 39.3336C43.3643 39.466 43.1226 39.6894 42.9559 40.0037C42.7485 40.6828 42.9531 41.1854 43.5697 41.5114C44.2908 41.7197 44.793 41.4777 45.0763 40.7854C45.1282 39.8135 44.6633 39.3295 43.6813 39.3336Z" fill="#7444FD"/>
<path opacity="0.932" fill-rule="evenodd" clip-rule="evenodd" d="M53.9486 37.4345C55.7106 37.2638 56.8824 38.0084 57.464 39.6682C57.7058 42.4045 56.4596 43.6516 53.7254 43.4096C52.0089 42.7487 51.3207 41.5016 51.6608 39.6682C52.0461 38.5192 52.8087 37.7746 53.9486 37.4345ZM54.2834 39.3332C53.555 39.6767 53.3131 40.2351 53.558 41.0084C54.2276 41.753 54.8972 41.753 55.5668 41.0084C55.8423 39.9245 55.4146 39.3661 54.2834 39.3332Z" fill="#7444FD"/>
</svg>

<?xml version="1.0" encoding="UTF-8"?>
<svg id="Capa_1" xmlns="http://www.w3.org/2000/svg" version="1.1" viewBox="0 0 80 80">
  <!-- Generator: Adobe Illustrator 29.8.1, SVG Export Plug-In . SVG Version: 2.1.1 Build 2)  -->
  <defs>
    <style>
      .st0 {
        fill: none;
        opacity: .74;
        stroke: #129689;
      }

      .st0, .st1, .st2, .st3, .st4 {
        isolation: isolate;
      }

      .st1 {
        opacity: .93;
      }

      .st1, .st2, .st3, .st4 {
        fill: #129689;
        fill-rule: evenodd;
      }

      .st2 {
        opacity: .94;
      }

      .st3 {
        opacity: .93;
      }

      .st4 {
        opacity: .93;
      }
    </style>
  </defs>
  <rect class="st0" x=".5" y=".5" width="79" height="79" rx="9.5" ry="9.5"/>
  <path class="st2" d="M24.49,19.01c8.26-.02,16.52,0,24.78.06,4.33.72,7.28,3.12,8.87,7.2.29.87.47,1.77.56,2.68,3.45,1.81,5.53,4.64,6.25,8.49.11,3.13.07,6.26-.11,9.38-1.27,4.85-4.38,7.74-9.32,8.66-5.39.06-10.79.07-16.18.06.14,1.34.2,2.68.17,4.02-.6,1.3-1.59,1.72-2.96,1.28-.19-.11-.37-.22-.56-.34-1.39-1.61-2.77-3.23-4.13-4.86-6.04-.78-9.59-4.17-10.66-10.16-3.43-1.76-5.48-4.55-6.14-8.38-.07-2.9-.07-5.81,0-8.71,1.06-5.25,4.2-8.37,9.43-9.38ZM24.6,20.91c8.37-.05,16.74,0,25.11.17,3.77,1,6.08,3.4,6.92,7.2-1.78-.17-3.56-.26-5.36-.28-6.35-.02-12.69-.04-19.03-.06-5.3.35-8.83,3.03-10.6,8.04-.15.59-.27,1.18-.33,1.79-.02,1.83-.07,3.65-.17,5.47-2.77-1.81-4.2-4.38-4.3-7.71-.09-2.31-.05-4.62.11-6.92.93-4.19,3.48-6.76,7.64-7.71ZM31.96,29.84c7.44-.02,14.88,0,22.32.06,3.63.25,6.29,1.98,7.98,5.19.38.82.64,1.67.78,2.57.25,2.95.21,5.89-.11,8.82-1.08,3.95-3.63,6.31-7.64,7.09-5.85,0-11.69.08-17.52.22-.33.25-.48.59-.45,1.01.16,1.43.27,2.86.33,4.3-.31-.03-.55-.18-.73-.45-1.31-1.69-2.71-3.3-4.19-4.86-4.92-.24-8.07-2.71-9.43-7.43-.18-2.83-.22-5.66-.11-8.49.99-4.8,3.91-7.48,8.76-8.04ZM33.08,39.33c1.21.08,1.6.68,1.17,1.79-.96.73-1.65.53-2.06-.61.08-.58.38-.97.89-1.17ZM43.68,39.33c.98,0,1.45.48,1.4,1.45-.28.69-.79.93-1.51.73-.62-.33-.82-.83-.61-1.51.17-.31.41-.54.73-.67ZM54.28,39.33c1.13.03,1.56.59,1.28,1.68-.67.74-1.34.74-2.01,0-.24-.77,0-1.33.73-1.68Z"/>
  <path class="st3" d="M32.74,37.43c1.76-.17,2.93.57,3.52,2.23.24,2.74-1,3.98-3.74,3.74-2.01-.89-2.62-2.36-1.84-4.41.49-.81,1.18-1.33,2.06-1.56ZM33.08,39.33c-.52.2-.82.59-.89,1.17.42,1.14,1.11,1.35,2.06.61.43-1.11.04-1.7-1.17-1.79Z"/>
  <path class="st4" d="M43.35,37.43c1.94-.15,3.15.7,3.63,2.57,0,2.5-1.25,3.63-3.74,3.41-1.71-.61-2.43-1.82-2.18-3.63.34-1.21,1.1-1.99,2.29-2.35ZM43.68,39.33c-.32.13-.56.36-.73.67-.21.68,0,1.18.61,1.51.72.21,1.22-.03,1.51-.73.05-.97-.41-1.46-1.4-1.45Z"/>
  <path class="st1" d="M53.95,37.43c1.76-.17,2.93.57,3.52,2.23.24,2.74-1,3.98-3.74,3.74-1.72-.66-2.4-1.91-2.06-3.74.39-1.15,1.15-1.89,2.29-2.23ZM54.28,39.33c-.73.34-.97.9-.73,1.68.67.74,1.34.74,2.01,0,.28-1.08-.15-1.64-1.28-1.68Z"/>
</svg>
